X:877
T:Thearlaich! Nan Tigeadh Tu!
T:Flora MacDonald
R:Reel
B:The Athole Collection
M:C|
L:1/8
K:E Minor
F|~E2 EF BFDF|~E2 B^c dBAF|~E2 EF EFGA|BdAd FDDF|
~E2 B^G BEEe|~E2 B^c dBAF|~E2 EF EFGA|BdAG FDDF||
Eee^d BEEF|Eee^c dBAF|Eee^d B^cde|faef dBAF|EeBe dEBE|
EeBe dBAF|EeBe deBe|faef dBAF||

